X:32 
T:Echoing Horn, The 
B:OFPC3.122
C:file ID: ofpc.3/032echo
N:I can't do much with this beyond presenting it
exactly as Mr. O'F does. Tally-ho and all that. . .
Q:100
M:3/8
L:1/8
K:D
A|"1"ded|dAd|dAd|d2e|f>ga|g>fe|d2d|ece|
"9"a2 A/B/|cAc|e2f/^g/|aec|fdf|A2e|aef|g>fe|
"17"fdf|a2f|bfe|dcf|B2d|dAd|F2d/f/|eAa|
"25"Ha2g|f>ed|eAc|d2 f/g/|a b/a/b/a/|g a/g/a/g/|f g/f/g/f/|e2A|
"33"a>gf|gfe|d2A|dAd|d2 f/d/|eAe|He2 fg|fed|
"41"eAc|d3-|d3|]

